!!!OTL:
!!!ONR: No. 7
!! From Madeleine Beland,
!! "Chansons de Voyageurs, Coureurs de Bois et Forestiers"
!! Quebec: Les Presses de l'universite/ Laval, 1982
!! ISBN 2-7637-6942-X
**kern
*clefG2
*k[f#]
*M6/8
8g
4f#
8a
=
8dd
8b
8g
8g
8f#
8a
=
qa
4dd
8b
4g
8ee
=
8dd
8cc
8b
8a
8e
8f#
=
4g
8r
qg
8dd
8dd
8dd
=
4cc
8dd
qdd
4ee
8cc
=
4a
8r
8a
8cc
qcc
8ee
=
4dd
8dd
8dd
8cc
8b
=
8a
8b
8g
8g
8f#
8a
=
4dd
8b
8g
8f#
8a
=
4dd
8b
4g
8ee
=
8dd
8cc
8b
8a
8e
8f#
=
4g
==
*-
